packages/foundations/assets/icons/functional/images/transportation/boat.svg

<svg xmlns="http://www.w3.org/2000/svg" width="32" height="32" fill="none"><path fill="#1A1C1F" fill-rule="evenodd" d="M15.973 7.524c-.205.027-1.725.275-3.377.55-2.9.483-3.01.505-3.2.657-.328.262-.397.45-.347.949.076.764.052 1.778-.052 2.158-.092.336-.386 1-.527 1.19-.056.075-.533.176-2.294.487-1.847.326-2.281.419-2.56.551-.727.342-1.199.884-1.467 1.686l-.145.435-.002 1.786c-.002 2.02.004 2.055.411 2.351a.97.97 0 0 0 1.217-.042c.338-.284.341-.3.37-2.202.029-1.91.037-1.953.381-2.156.101-.06 3.926-.753 11.339-2.055 6.153-1.08 11.194-1.958 11.202-1.95s-.22.39-.507.849c-.332.532-.56.844-.628.86-.059.014-3.944.685-8.634 1.49-9.486 1.629-8.807 1.481-9.046 1.975-.312.644.159 1.414.864 1.413.126 0 3.648-.587 7.827-1.304s7.608-1.294 7.619-1.282c.012.011-.282.505-.653 1.098-.371.592-.701 1.175-.733 1.296-.11.418.168.962.58 1.134.365.153.844.043 1.117-.256.226-.249 5.187-8.254 5.242-8.461a.8.8 0 0 0 .035-.285 3 3 0 0 1-.055-.218c-.039-.178-.313-.499-.515-.604a1.1 1.1 0 0 0-.406-.077c-.14.001-1.886.288-3.879.639s-3.627.632-3.629.626a34 34 0 0 0-.399-.545c-.771-1.045-1.831-1.961-2.75-2.378a4.6 4.6 0 0 0-2.399-.365m1.464 2.154c.498.211.928.52 1.439 1.035.393.396.437.458.347.495-.057.023-1.903.355-4.103.738s-4.065.71-4.145.726l-.146.029.079-.257c.127-.413.238-1.183.238-1.653l.001-.435.36-.06 2.52-.429c2.49-.426 2.808-.443 3.41-.189M5.84 20.616c-.088.046-.316.236-.507.423-.774.758-1.819 1.417-2.372 1.494-.393.055-.642.204-.805.482-.267.456-.138 1.05.29 1.333.682.451 2.181-.02 3.462-1.089.333-.277.336-.278.459-.182 1.036.807 1.389 1.02 2.064 1.247.623.209 1.087.246 1.652.132.775-.157 1.49-.526 2.302-1.187l.359-.292.388.317c1.049.856 1.873 1.202 2.868 1.202s1.819-.346 2.867-1.201l.386-.316.422.337c.892.714 1.828 1.136 2.658 1.198.961.073 1.982-.365 3.236-1.385l.186-.151.336.28c.789.659 1.536 1.041 2.345 1.2.753.147 1.165.017 1.423-.451.258-.466.098-1.075-.347-1.322-.113-.063-.381-.141-.596-.174-.641-.098-1.184-.439-2.087-1.312-.571-.552-.754-.666-1.068-.666-.354 0-.53.112-1.148.733-1.187 1.191-1.974 1.478-2.858 1.042-.375-.185-.86-.567-1.515-1.193-.497-.474-.683-.583-.997-.579-.35.003-.474.083-1.123.72-1.386 1.36-2.181 1.562-3.288.837-.164-.108-.587-.477-.939-.821-.668-.651-.804-.739-1.146-.739-.344 0-.482.089-1.12.717-.649.639-1.106.97-1.581 1.148-.783.293-1.42.018-2.619-1.13-.335-.321-.69-.618-.79-.659-.236-.099-.597-.096-.797.007"/></svg>

<svg width="32" height="32" viewBox="0 0 32 32" fill="none" xmlns="http://www.w3.org/2000/svg"><path d="M15.973 7.524 C 15.768 7.551,14.248 7.799,12.596 8.074 C 9.696 8.557,9.586 8.579,9.396 8.731 C 9.068 8.993,8.999 9.181,9.049 9.680 C 9.125 10.444,9.101 11.458,8.997 11.838 C 8.905 12.174,8.611 12.838,8.470 13.028 C 8.414 13.103,7.937 13.204,6.176 13.515 C 4.329 13.841,3.895 13.934,3.616 14.066 C 2.889 14.408,2.417 14.950,2.149 15.752 L 2.004 16.187 2.002 17.973 C 2.000 19.993,2.006 20.028,2.413 20.324 C 2.792 20.598,3.275 20.581,3.630 20.282 C 3.968 19.998,3.971 19.982,4.000 18.080 C 4.029 16.170,4.037 16.127,4.381 15.924 C 4.482 15.864,8.307 15.171,15.720 13.869 C 21.873 12.789,26.914 11.911,26.922 11.919 C 26.930 11.927,26.702 12.309,26.415 12.768 C 26.083 13.300,25.855 13.612,25.787 13.628 C 25.728 13.642,21.843 14.313,17.153 15.118 C 7.667 16.747,8.346 16.599,8.107 17.093 C 7.795 17.737,8.266 18.507,8.971 18.506 C 9.097 18.506,12.619 17.919,16.798 17.202 C 20.977 16.485,24.406 15.908,24.417 15.920 C 24.429 15.931,24.135 16.425,23.764 17.018 C 23.393 17.610,23.063 18.193,23.031 18.314 C 22.921 18.732,23.199 19.276,23.611 19.448 C 23.976 19.601,24.455 19.491,24.728 19.192 C 24.954 18.943,29.915 10.938,29.970 10.731 C 30.002 10.614,30.017 10.486,30.005 10.446 C 29.992 10.406,29.968 10.308,29.950 10.228 C 29.911 10.050,29.637 9.729,29.435 9.624 C 29.353 9.581,29.170 9.547,29.029 9.547 C 28.889 9.548,27.143 9.835,25.150 10.186 C 23.156 10.537,21.523 10.818,21.521 10.812 C 21.518 10.805,21.339 10.560,21.122 10.267 C 20.351 9.222,19.291 8.306,18.372 7.889 C 17.643 7.558,16.744 7.422,15.973 7.524 M17.437 9.678 C 17.935 9.889,18.365 10.198,18.876 10.713 C 19.269 11.109,19.313 11.171,19.223 11.208 C 19.166 11.231,17.320 11.563,15.120 11.946 C 12.920 12.329,11.055 12.656,10.975 12.672 L 10.829 12.701 10.908 12.444 C 11.035 12.031,11.146 11.261,11.146 10.791 L 11.147 10.356 11.507 10.296 C 11.705 10.263,12.839 10.069,14.027 9.867 C 16.517 9.441,16.835 9.424,17.437 9.678 M5.840 20.616 C 5.752 20.662,5.524 20.852,5.333 21.039 C 4.559 21.797,3.514 22.456,2.961 22.533 C 2.568 22.588,2.319 22.737,2.156 23.015 C 1.889 23.471,2.018 24.065,2.446 24.348 C 3.128 24.799,4.627 24.328,5.908 23.259 C 6.241 22.982,6.244 22.981,6.367 23.077 C 7.403 23.884,7.756 24.097,8.431 24.324 C 9.054 24.533,9.518 24.570,10.083 24.456 C 10.858 24.299,11.573 23.930,12.385 23.269 L 12.744 22.977 13.132 23.294 C 14.181 24.150,15.005 24.496,16.000 24.496 C 16.994 24.496,17.819 24.150,18.867 23.295 L 19.253 22.979 19.675 23.316 C 20.567 24.030,21.503 24.452,22.333 24.514 C 23.294 24.587,24.315 24.149,25.569 23.129 L 25.755 22.978 26.091 23.258 C 26.880 23.917,27.627 24.299,28.436 24.458 C 29.189 24.605,29.601 24.475,29.859 24.007 C 30.117 23.541,29.957 22.932,29.512 22.685 C 29.399 22.622,29.131 22.544,28.916 22.511 C 28.275 22.413,27.732 22.072,26.829 21.199 C 26.258 20.647,26.075 20.533,25.761 20.533 C 25.407 20.533,25.231 20.645,24.613 21.266 C 23.426 22.457,22.639 22.744,21.755 22.308 C 21.380 22.123,20.895 21.741,20.240 21.115 C 19.743 20.641,19.557 20.532,19.243 20.536 C 18.893 20.539,18.769 20.619,18.120 21.256 C 16.734 22.616,15.939 22.818,14.832 22.093 C 14.668 21.985,14.245 21.616,13.893 21.272 C 13.225 20.621,13.089 20.533,12.747 20.533 C 12.403 20.533,12.265 20.622,11.627 21.250 C 10.978 21.889,10.521 22.220,10.046 22.398 C 9.263 22.691,8.626 22.416,7.427 21.268 C 7.092 20.947,6.737 20.650,6.637 20.609 C 6.401 20.510,6.040 20.513,5.840 20.616 " fill="#1A1C1F" stroke="none" fill-rule="evenodd"></path></svg>
